X: 29463
T: Night Owl, The
R: jig
M: 6/8
K: Bminor
B3 BAB|cBA FEc|B3 BAB|cde edc|
B3 Bcd|cBA fec|ABc efa|b2f bdc:|
Bcd f^ga|efe cBA|FBc dcB|cFF F2c|
Bcd f^ga|efe cAF|EFA cBA|1 B3 Bdc|2 B2F Bdc:|

